korla/apps/scalable/moneydance.svg

<!DOCTYPE svg  PUBLIC '-//W3C//DTD SVG 1.1//EN'  'http://www.w3.org/Graphics/SVG/1.1/DTD/svg11.dtd'>
<svg style="clip-rule:evenodd;fill-rule:evenodd;stroke-linejoin:round;stroke-miterlimit:1.41421" version="1.1" viewBox="0 0 24 24" xmlns="http://www.w3.org/2000/svg">
 <g transform="matrix(1.17425,0,0,1.17425,-2.09097,-2.09097)">
  <path d="m12 2c-5.486 0-10 4.514-10 10s4.514 10 10 10 10-4.514 10-10-4.514-10-10-10z" style="fill-rule:nonzero;fill:rgb(255,124,64)"/>
 </g>
 <g transform="matrix(1.17425,0,0,1.17425,-2.09097,-2.09097)">
  <path d="m12 2c-5.486 0-10 4.514-10 10 3e-3 0.07 6e-3 0.139 0.011 0.209 0.156-5.371 4.615-9.705 9.989-9.709 5.404 4e-3 9.876 4.388 9.989 9.791 5e-3 -0.097 9e-3 -0.194 0.011-0.291 0-5.486-4.514-10-10-10z" style="fill-opacity:.2;fill-rule:nonzero;fill:white"/>
 </g>
 <path d="m14.525 6.502c-2.468 0-4.5 0.677-4.5 1.5s2.032 1.5 4.5 1.5c2.469 0 4.5-0.677 4.5-1.5s-2.031-1.5-4.5-1.5zm4.237 3c-0.633 0.597-2.336 0.999-4.237 1-1.899-1e-3 -3.601-0.402-4.236-0.998-0.172 0.16-0.261 0.328-0.264 0.498v1e-3c0 0.822 2.032 1.499 4.5 1.499 2.469 0 4.5-0.677 4.5-1.499v-1e-3c-2e-3 -0.17-0.091-0.34-0.263-0.5zm0 2c-0.633 0.597-2.336 0.999-4.237 1-0.275 0-0.551-9e-3 -0.822-0.025 0.183 0.163 0.297 0.338 0.297 0.523v0.49c0.174 8e-3 0.35 0.011 0.525 0.012 2.469 0 4.5-0.677 4.5-1.499v-1e-3c-2e-3 -0.17-0.091-0.34-0.263-0.5zm-8.473 2e-3c-7e-3 8e-3 -0.014 0.016-0.021 0.023 0.016 1e-3 0.033-1e-3 0.048 0-9e-3 -7e-3 -0.018-0.015-0.027-0.023zm8.473 1.996c-0.633 0.597-2.336 0.999-4.237 1-0.175 0-0.351-4e-3 -0.525-0.012v1c0.174 8e-3 0.35 0.012 0.525 0.012 2.469 0 4.5-0.677 4.5-1.499v-1e-3c-2e-3 -0.17-0.091-0.34-0.263-0.5zm0 2c-0.633 0.597-2.336 0.999-4.237 1-0.175 0-0.351-4e-3 -0.525-0.012v0.512c0 0.168-0.101 0.328-0.254 0.479 0.257 0.014 0.518 0.021 0.779 0.021 2.469 0 4.5-0.677 4.5-1.499v-1e-3c-2e-3 -0.17-0.091-0.34-0.263-0.5z" style="fill-opacity:.2;fill-rule:nonzero"/>
 <path d="m14.525 6.002c-2.468 0-4.5 0.677-4.5 1.5s2.032 1.5 4.5 1.5c2.469 0 4.5-0.677 4.5-1.5s-2.031-1.5-4.5-1.5zm4.237 3c-0.633 0.597-2.336 0.999-4.237 1-1.899-1e-3 -3.601-0.402-4.236-0.998-0.172 0.16-0.261 0.328-0.264 0.498v1e-3c0 0.822 2.032 1.499 4.5 1.499 2.469 0 4.5-0.677 4.5-1.499v-1e-3c-2e-3 -0.17-0.091-0.34-0.263-0.5zm0 2c-0.633 0.597-2.336 0.999-4.237 1-0.275 0-0.551-9e-3 -0.822-0.025 0.183 0.163 0.297 0.338 0.297 0.523v0.49c0.174 8e-3 0.35 0.011 0.525 0.012 2.469 0 4.5-0.677 4.5-1.499v-1e-3c-2e-3 -0.17-0.091-0.34-0.263-0.5zm-8.473 2e-3c-7e-3 8e-3 -0.014 0.016-0.021 0.023 0.016 1e-3 0.033-1e-3 0.048 0-9e-3 -7e-3 -0.018-0.015-0.027-0.023zm8.473 1.996c-0.633 0.597-2.336 0.999-4.237 1-0.175 0-0.351-4e-3 -0.525-0.012v1c0.174 8e-3 0.35 0.012 0.525 0.012 2.469 0 4.5-0.677 4.5-1.499v-1e-3c-2e-3 -0.17-0.091-0.34-0.263-0.5zm0 2c-0.633 0.597-2.336 0.999-4.237 1-0.175 0-0.351-4e-3 -0.525-0.012v0.512c0 0.168-0.101 0.328-0.254 0.479 0.257 0.014 0.518 0.021 0.779 0.021 2.469 0 4.5-0.677 4.5-1.499v-1e-3c-2e-3 -0.17-0.091-0.34-0.263-0.5z" style="fill-rule:nonzero;fill:rgb(255,216,198)"/>
 <path d="m9.5 11.5c-2.469 0-4.5 0.677-4.5 1.5s2.031 1.5 4.5 1.5 4.5-0.677 4.5-1.5-2.031-1.5-4.5-1.5zm4.238 3c-0.633 0.597-2.337 0.999-4.238 1-1.899-1e-3 -3.601-0.402-4.236-0.998-0.172 0.16-0.261 0.328-0.264 0.498v1e-3c0 0.822 2.031 1.499 4.5 1.499s4.5-0.677 4.5-1.499v-1e-3c-1e-3 -0.17-0.09-0.34-0.262-0.5zm0 2c-0.633 0.597-2.337 0.999-4.238 1-1.899-1e-3 -3.601-0.402-4.236-0.998-0.172 0.16-0.261 0.328-0.264 0.498v1e-3c0 0.822 2.031 1.499 4.5 1.499s4.5-0.677 4.5-1.499v-1e-3c-1e-3 -0.17-0.09-0.34-0.262-0.5z" style="fill-opacity:.2;fill-rule:nonzero"/>
 <path d="m9.5 11c-2.469 0-4.5 0.677-4.5 1.5s2.031 1.5 4.5 1.5 4.5-0.677 4.5-1.5-2.031-1.5-4.5-1.5zm4.238 3c-0.633 0.597-2.337 0.999-4.238 1-1.899-1e-3 -3.601-0.402-4.236-0.998-0.172 0.16-0.261 0.328-0.264 0.498v1e-3c0 0.822 2.031 1.499 4.5 1.499s4.5-0.677 4.5-1.499v-1e-3c-1e-3 -0.17-0.09-0.34-0.262-0.5zm0 2c-0.633 0.597-2.337 0.999-4.238 1-1.899-1e-3 -3.601-0.402-4.236-0.998-0.172 0.16-0.261 0.328-0.264 0.498v1e-3c0 0.822 2.031 1.499 4.5 1.499s4.5-0.677 4.5-1.499v-1e-3c-1e-3 -0.17-0.09-0.34-0.262-0.5z" style="fill-rule:nonzero;fill:white"/>
</svg>

<?xml version="1.0" encoding="UTF-8" standalone="no"?>
<!DOCTYPE svg PUBLIC "-//W3C//DTD SVG 1.1//EN" "http://www.w3.org/Graphics/SVG/1.1/DTD/svg11.dtd">
<svg width="100%" height="100%" viewBox="0 0 24 24" version="1.1" xmlns="http://www.w3.org/2000/svg" xmlns:xlink="http://www.w3.org/1999/xlink" xml:space="preserve" xmlns:serif="http://www.serif.com/" style="fill-rule:evenodd;clip-rule:evenodd;stroke-linejoin:round;stroke-miterlimit:1.41421;">
    <g transform="matrix(1.17425,0,0,1.17425,-2.09097,-2.09097)">
        <path d="M12,2C6.514,2 2,6.514 2,12C2,17.486 6.514,22 12,22C17.486,22 22,17.486 22,12C22,6.514 17.486,2 12,2Z" style="fill:rgb(255,124,64);fill-rule:nonzero;"/>
    </g>
    <g transform="matrix(1.17425,0,0,1.17425,-2.09097,-2.09097)">
        <path d="M12,2C6.514,2 2,6.514 2,12C2.003,12.07 2.006,12.139 2.011,12.209C2.167,6.838 6.626,2.504 12,2.5C17.404,2.504 21.876,6.888 21.989,12.291C21.994,12.194 21.998,12.097 22,12C22,6.514 17.486,2 12,2Z" style="fill:white;fill-opacity:0.2;fill-rule:nonzero;"/>
    </g>
    <path d="M14.525,6.502C12.057,6.502 10.025,7.179 10.025,8.002C10.025,8.825 12.057,9.502 14.525,9.502C16.994,9.502 19.025,8.825 19.025,8.002C19.025,7.179 16.994,6.502 14.525,6.502ZM18.762,9.502C18.129,10.099 16.426,10.501 14.525,10.502C12.626,10.501 10.924,10.1 10.289,9.504C10.117,9.664 10.028,9.832 10.025,10.002L10.025,10.003C10.025,10.825 12.057,11.502 14.525,11.502C16.994,11.502 19.025,10.825 19.025,10.003L19.025,10.002C19.023,9.832 18.934,9.662 18.762,9.502ZM18.762,11.502C18.129,12.099 16.426,12.501 14.525,12.502C14.25,12.502 13.974,12.493 13.703,12.477C13.886,12.64 14,12.815 14,13C14,13 14,13.389 14,13.49C14.174,13.498 14.35,13.501 14.525,13.502C16.994,13.502 19.025,12.825 19.025,12.003L19.025,12.002C19.023,11.832 18.934,11.662 18.762,11.502ZM10.289,11.504C10.282,11.512 10.275,11.52 10.268,11.527C10.284,11.528 10.301,11.526 10.316,11.527C10.307,11.52 10.298,11.512 10.289,11.504ZM18.762,13.5C18.129,14.097 16.426,14.499 14.525,14.5C14.35,14.5 14.174,14.496 14,14.488C14,14.942 14,15.022 14,15.488C14.174,15.496 14.35,15.5 14.525,15.5C16.994,15.5 19.025,14.823 19.025,14.001L19.025,14C19.023,13.83 18.934,13.66 18.762,13.5ZM18.762,15.5C18.129,16.097 16.426,16.499 14.525,16.5C14.35,16.5 14.174,16.496 14,16.488C14,16.614 14,16.978 14,17C14,17.168 13.899,17.328 13.746,17.479C14.003,17.493 14.264,17.5 14.525,17.5C16.994,17.5 19.025,16.823 19.025,16.001L19.025,16C19.023,15.83 18.934,15.66 18.762,15.5Z" style="fill-opacity:0.2;fill-rule:nonzero;"/>
    <path d="M14.525,6.002C12.057,6.002 10.025,6.679 10.025,7.502C10.025,8.325 12.057,9.002 14.525,9.002C16.994,9.002 19.025,8.325 19.025,7.502C19.025,6.679 16.994,6.002 14.525,6.002ZM18.762,9.002C18.129,9.599 16.426,10.001 14.525,10.002C12.626,10.001 10.924,9.6 10.289,9.004C10.117,9.164 10.028,9.332 10.025,9.502L10.025,9.503C10.025,10.325 12.057,11.002 14.525,11.002C16.994,11.002 19.025,10.325 19.025,9.503L19.025,9.502C19.023,9.332 18.934,9.162 18.762,9.002ZM18.762,11.002C18.129,11.599 16.426,12.001 14.525,12.002C14.25,12.002 13.974,11.993 13.703,11.977C13.886,12.14 14,12.315 14,12.5C14,12.5 14,12.889 14,12.99C14.174,12.998 14.35,13.001 14.525,13.002C16.994,13.002 19.025,12.325 19.025,11.503L19.025,11.502C19.023,11.332 18.934,11.162 18.762,11.002ZM10.289,11.004C10.282,11.012 10.275,11.02 10.268,11.027C10.284,11.028 10.301,11.026 10.316,11.027C10.307,11.02 10.298,11.012 10.289,11.004ZM18.762,13C18.129,13.597 16.426,13.999 14.525,14C14.35,14 14.174,13.996 14,13.988C14,14.442 14,14.522 14,14.988C14.174,14.996 14.35,15 14.525,15C16.994,15 19.025,14.323 19.025,13.501L19.025,13.5C19.023,13.33 18.934,13.16 18.762,13ZM18.762,15C18.129,15.597 16.426,15.999 14.525,16C14.35,16 14.174,15.996 14,15.988C14,16.114 14,16.478 14,16.5C14,16.668 13.899,16.828 13.746,16.979C14.003,16.993 14.264,17 14.525,17C16.994,17 19.025,16.323 19.025,15.501L19.025,15.5C19.023,15.33 18.934,15.16 18.762,15Z" style="fill:rgb(255,216,198);fill-rule:nonzero;"/>
    <path d="M9.5,11.5C7.031,11.5 5,12.177 5,13C5,13.823 7.031,14.5 9.5,14.5C11.969,14.5 14,13.823 14,13C14,12.177 11.969,11.5 9.5,11.5ZM13.738,14.5C13.105,15.097 11.401,15.499 9.5,15.5C7.601,15.499 5.899,15.098 5.264,14.502C5.092,14.662 5.003,14.83 5,15L5,15.001C5,15.823 7.031,16.5 9.5,16.5C11.969,16.5 14,15.823 14,15.001L14,15C13.999,14.83 13.91,14.66 13.738,14.5ZM13.738,16.5C13.105,17.097 11.401,17.499 9.5,17.5C7.601,17.499 5.899,17.098 5.264,16.502C5.092,16.662 5.003,16.83 5,17L5,17.001C5,17.823 7.031,18.5 9.5,18.5C11.969,18.5 14,17.823 14,17.001L14,17C13.999,16.83 13.91,16.66 13.738,16.5Z" style="fill-opacity:0.2;fill-rule:nonzero;"/>
    <path d="M9.5,11C7.031,11 5,11.677 5,12.5C5,13.323 7.031,14 9.5,14C11.969,14 14,13.323 14,12.5C14,11.677 11.969,11 9.5,11ZM13.738,14C13.105,14.597 11.401,14.999 9.5,15C7.601,14.999 5.899,14.598 5.264,14.002C5.092,14.162 5.003,14.33 5,14.5L5,14.501C5,15.323 7.031,16 9.5,16C11.969,16 14,15.323 14,14.501L14,14.5C13.999,14.33 13.91,14.16 13.738,14ZM13.738,16C13.105,16.597 11.401,16.999 9.5,17C7.601,16.999 5.899,16.598 5.264,16.002C5.092,16.162 5.003,16.33 5,16.5L5,16.501C5,17.323 7.031,18 9.5,18C11.969,18 14,17.323 14,16.501L14,16.5C13.999,16.33 13.91,16.16 13.738,16Z" style="fill:white;fill-rule:nonzero;"/>
</svg>
